X:1
T:Title
%%score { 1 | ( 2 3 ) }
L:1/8
Q:1/4=100
M:6/8
K:Eb
V:1 treble nm="Grand Piano"
V:2 bass 
V:3 bass 
V:1
 [B,GB]3 [B,EG][FA][GB] | [FA]2 [EG] [B,DF]3 | [B,EG]3 [B,FA]2 [B,EG] | %3
w: Hubert~P.~Main * * *|||
 [A,CF]2[K:bass] [G,CE] [F,B,D]3 | [G,B,E]3 [B,DF]2 [B,EG] | [A,EA]2 [EB] [Ec]3 | %6
w: |||
 [G,E]3 [A,DF]2 [B,DG] | [G,E]6 |] %8
w: ||
V:2
 E,3 z A,[E,G,] | B,2- [E,B,] B,,3 | E,3 D,2 E, | A,,2 =A,, B,,3 | E,3 B,,2 _D, | %5
 C,2 [B,,G,] F,2 _G, | B,,3 B,,2 B,, | E,6 |] %8
V:3
 z3 .E,3 | .D,3 z3 | x6 | x6 | x6 | z3 A,,3 | x6 | x6 |] %8

